_src/static/img/sprite/whatsapp.svg

<svg width="18" height="18" viewBox="0 0 18 18" fill="none" xmlns="http://www.w3.org/2000/svg">
<path fill-rule="evenodd" clip-rule="evenodd" d="M8.99726 0.75C4.45475 0.75 0.769213 4.42336 0.769213 8.95085C0.769213 10.5028 1.2005 11.9487 1.95105 13.1881L0.466751 17.5872L5.02046 16.1301C6.2023 16.7777 7.55777 17.1517 8.99726 17.1517C13.5398 17.1517 17.2253 13.4783 17.2253 8.95085C17.2309 4.42336 13.5454 0.75 8.99726 0.75ZM8.99726 15.851C7.59138 15.851 6.28072 15.4323 5.1885 14.7121L2.52797 15.5607L3.39054 12.9982C2.56157 11.8594 2.07428 10.4637 2.07428 8.95644C2.07428 5.15468 5.1773 2.06191 8.99166 2.06191C12.806 2.06191 15.909 5.15468 15.909 8.95644C15.9202 12.7582 12.8172 15.851 8.99726 15.851ZM13.1533 10.8434C13.2037 10.9271 13.2037 11.329 13.0357 11.798C12.8676 12.2669 12.0443 12.7191 11.6746 12.7526C11.3049 12.7861 11.3049 13.0541 9.25491 12.2502C7.2049 11.4463 5.91104 9.34722 5.81022 9.21324C5.7094 9.07925 4.98686 8.12463 4.98686 7.1365C4.98686 6.14838 5.50776 5.6627 5.6926 5.46172C5.87743 5.26075 6.09588 5.2105 6.2303 5.2105C6.36473 5.2105 6.49916 5.22725 6.61678 5.22725C6.73441 5.22725 6.90244 5.16026 7.07047 5.56221C7.23851 5.96416 7.64178 6.95228 7.69219 7.05277C7.7426 7.15325 7.77621 7.27049 7.709 7.40447C7.64179 7.53845 7.60818 7.62219 7.50736 7.73943C7.40654 7.85666 7.29452 8.00181 7.2049 8.09113C7.10408 8.19162 6.99766 8.29769 7.11528 8.49866C7.23291 8.69964 7.63619 9.35838 8.23551 9.88873C9.00846 10.5754 9.65819 10.7875 9.85983 10.888C10.0615 10.9885 10.1791 10.9718 10.2967 10.8378C10.4143 10.7038 10.8008 10.2516 10.9352 10.0506C11.0697 9.84965 11.2041 9.88315 11.3889 9.95014C11.5738 10.0171 12.5652 10.5028 12.7668 10.6033C12.9684 10.7094 13.1029 10.7596 13.1533 10.8434Z" fill="#1B3ACD"/>
</svg>

<svg width="18" height="18" fill="none" xmlns="http://www.w3.org/2000/svg"><path fill-rule="evenodd" clip-rule="evenodd" d="M8.997.75C4.455.75.77 4.423.77 8.95c0 1.553.431 2.999 1.182 4.238l-1.484 4.4L5.02 16.13a8.256 8.256 0 003.977 1.022c4.543 0 8.228-3.674 8.228-8.201C17.231 4.423 13.545.75 8.997.75zm0 15.101a6.899 6.899 0 01-3.808-1.139l-2.661.849.863-2.563a6.842 6.842 0 01-1.317-4.042c0-3.801 3.103-6.894 6.918-6.894 3.814 0 6.917 3.093 6.917 6.894.011 3.802-3.092 6.895-6.912 6.895zm4.156-5.008c.05.084.05.486-.117.955-.168.469-.992.921-1.361.955-.37.033-.37.301-2.42-.503S5.91 9.347 5.81 9.213c-.1-.134-.823-1.088-.823-2.076 0-.989.52-1.474.706-1.675a.742.742 0 01.537-.252c.135 0 .27.017.387.017.117 0 .285-.067.453.335.169.402.572 1.39.622 1.49.05.101.084.218.017.352-.067.134-.1.218-.202.335-.1.118-.212.263-.302.352-.1.1-.207.207-.09.408.118.2.521.86 1.12 1.39.773.686 1.423.899 1.625.999.202.1.32.084.437-.05.117-.134.504-.586.638-.787.135-.201.27-.168.454-.1.185.066 1.176.552 1.378.652.201.106.336.157.386.24z" fill="#1B3ACD"/></svg>
